X:88
T:Johnny Fedora and Alice Bluebonnet
C:from a disney cartoon
N:TablEdited by David Ogershok
L:1/8
Q:1/4=120
M:3/4
K:C
"A"z6 | "Bbdim"z6 | "E7"z6 | "E7"z6 |: "A"e2 ^c3d | "Bbdim"e2 ^f3e | "E7"d2 B3^c | 
"E7"d2 e2 ^cd | "A"[e4^c4] e/^f/e | "Bbdim"e2 ^d2 e2 | "D"^f^g fe d^c | "E7"[B4^G4] ^cd | 
"A"e2 ^c2 d2 | "A7"[e4^c4] ee | "D"^f2 d2 f2 | "Cdim"[a4^d4] ^g^f | "A"e2 ^c3d | 
"E7"^c4 B2 | "A"A4 E^F |1 AB ^cd e^f :|2 A4 aa |] "F#min"a2 ^f3^g | a2 ^g2 ^f2 | 
"C#min"^g2 e3^f | ^g2 ^f2 e2 | "D"^f2 d3e | "Cdim"^f4 e^d | "A"e4 AB | "Bbdim"^cd e^f fe | 
"Bmin"d2 B3^c | "Dmin"d2 ^c2 B2 | "A"^c2 A3B | "F#7"^c2 ^fe dc | "Bmin"B2 ^G3A | 
"E7"B2 A2 ^G2 | "A"A6 | z6 | 


